X: 1
T: THE MAID'S COMPLAINT -- JIG
B: Ryan's Mammoth Collection of Fiddle Tunes
R: jig
M: 9/8
L: 1/8
Z: Contributed 20010706210748 by John Chambers jmchambers:rcn.net
K: F
  uc2A A2f edc | d2e f2g afd | c2A A2f edc |1 def gfe f3 :|2 def cAF F3 |]
|: a2f f2a agf | g2e e2g gfe | f2d d2f edc |1 def gfe f3 :|2 def cAF F3 |]
